ui/StatusQ/src/assets/img/icons/external.svg

<svg fill="none" height="17" viewBox="0 0 16 17" width="16" xmlns="http://www.w3.org/2000/svg"><g fill="#000"><path clip-rule="evenodd" d="m4.5 6.25c-.41421 0-.75.33579-.75.75v5c0 .4142.33579.75.75.75h5c.41421 0 .75-.3358.75-.75v-2.79289c0-.13261.0527-.25979.1464-.35356l.9268-.92677c.1575-.15749.4268-.04595.4268.17677v3.89645c0 1.2426-1.0074 2.25-2.25 2.25h-5c-1.24264 0-2.25-1.0074-2.25-2.25v-5c0-1.24264 1.00736-2.25 2.25-2.25h3.89645c.22272 0 .33426.26929.17677.42678l-.92677.92677c-.09377.09377-.22095.14645-.35356.14645z" fill-rule="evenodd"/><path d="m14.75 2.5c0-.19189-.0732-.38379-.2197-.53027-.1465-.14649-.3384-.21973-.5303-.21973h-5c-.41431 0-.75.33582-.75.75s.33569.75.75.75h2.7066c.1782 0 .2674.21543.1414.34142l-5.37827 5.37831c-.29297.29284-.29297.7677 0 1.06057.29272.2929.76782.2929 1.06054 0l5.37833-5.37833c.126-.12599.3414-.03676.3414.14142v2.70661c0 .41418.3359.75.75.75s.75-.33582.75-.75z"/></g></svg>

<svg width="16" height="17" viewBox="0 0 16 17" fill="none" xmlns="http://www.w3.org/2000/svg">
<path fill-rule="evenodd" clip-rule="evenodd" d="M4.5 6.25C4.08579 6.25 3.75 6.58579 3.75 7V12C3.75 12.4142 4.08579 12.75 4.5 12.75H9.5C9.91421 12.75 10.25 12.4142 10.25 12V9.20711C10.25 9.0745 10.3027 8.94732 10.3964 8.85355L11.3232 7.92678C11.4807 7.76929 11.75 7.88083 11.75 8.10355V12C11.75 13.2426 10.7426 14.25 9.5 14.25H4.5C3.25736 14.25 2.25 13.2426 2.25 12V7C2.25 5.75736 3.25736 4.75 4.5 4.75H8.39645C8.61917 4.75 8.73071 5.01929 8.57322 5.17678L7.64645 6.10355C7.55268 6.19732 7.4255 6.25 7.29289 6.25H4.5Z" fill="black"/>
<path d="M14.75 2.5C14.75 2.30811 14.6768 2.11621 14.5303 1.96973C14.3838 1.82324 14.1919 1.75 14 1.75H9C8.58569 1.75 8.25 2.08582 8.25 2.5C8.25 2.91418 8.58569 3.25 9 3.25H11.7066C11.8848 3.25 11.974 3.46543 11.848 3.59142L6.46973 8.96973C6.17676 9.26257 6.17676 9.73743 6.46973 10.0303C6.76245 10.3232 7.23755 10.3232 7.53027 10.0303L12.9086 4.65197C13.0346 4.52598 13.25 4.61521 13.25 4.79339V7.5C13.25 7.91418 13.5859 8.25 14 8.25C14.4141 8.25 14.75 7.91418 14.75 7.5V2.5Z" fill="black"/>
</svg>
